X:1
T:Title
%%score { ( 1 4 ) | ( 2 3 ) }
L:1/8
Q:1/4=96
M:4/4
K:C
V:1 treble nm="Grand Piano"
V:4 treble 
V:2 bass 
V:3 bass 
V:1
 [CE][EG][_E^F][EA] [=EG]2 [Ec]2 | [Fc]4 [FB]4 | [B,D][DF][^CE][DF] [DFB]2 [FA]2 | [_EA]4 G4 | %4
w: I.~Allan~Sankey * * * * *||||
 E[EG][_E^F][EA] [=EG]2 [Ge]2 | d4 A4 | G^FG^G A2 [=FB]2 | [Ec]6 z2 | d3 c B2 G2 | %9
w: |||||
 [Ge]3 [Fd] [Ec]2 [EG][EG] | [FA][Ac][GB][FA] [EG]2 [Ec]2 | e4 d2 ed | cccc [^GB]2 [Gc][GB] | %13
w: ||||
 AdcA G2 [EG][EG] | [FA][GB][Gc][Ad] [Ge]2 [Fd]>[Ec] | c6 z2 |] %16
w: |||
V:2
 [C,G,][C,G,][C,A,][C,^F,] [C,G,]2 [C,G,]2 | [D,G,]4 [G,,G,]4 | %2
 [G,,G,][G,,G,][G,,G,][G,,G,] G,,2 [B,,G,]2 | C,4- [C,G,E]4 | %4
 [C,G,C][C,G,][C,A,][C,^F,] [C,G,]2 [C,C]2 | [F,A,F]4 [F,CF]4 | %6
 [G,CE][G,C_E][G,C=E][G,CE] [G,B,F]2[K:bass] [G,,G,]2 | [C,G,]6 z2 | %8
 [G,B,F]3 [G,CF] [G,DF]2 [G,B,F]2 | [C,C]3 [C,G,] [C,G,]2 [C,C][C,C] | %10
 [F,C][F,C][F,C][F,C] [C,C]2 [C,C]2 | [G,CG]4 [G,B,G]2 [G,B,G][^G,B,F] | %12
 [A,CE][A,EA][A,EA][A,EA][K:bass] [E,D]2 [E,E][E,D] | [F,C][F,A,F][F,A,F][F,CF] [E,C]2 [C,C][C,C] | %14
 [F,C][F,D][E,C][F,C] [G,C]2 [G,B,]>[C,G,] | G,2 z2 z4 |] %16
V:3
 x8 | x8 | x8 | ^F,4 z4 | x8 | x8 | x6[K:bass] x2 | x8 | x8 | x8 | x8 | x8 | x4[K:bass] x4 | x8 | %14
 x8 | C,2- [C,-A,]>[C,-^G,] [C,=G,]2 z2 |] %16
V:4
 x8 | x8 | x8 | x8 | x8 | x8 | x8 | x8 | x8 | x8 | x8 | x8 | x8 | x8 | x8 | E2 F>D E2 z2 |] %16

